!!!OTL-incipit: ZU STRASBURG AUF DER SCHANZ
!!!ARE: Europa, Mitteleuropa, Deutschland, Schwaben; Rheinland
!!!SCT: Z0004
!!!TXL: @@DE
!!!YEM: Copyright 1995, estate of Helmut Schaffrath.
**kern	**text
*ICvox	*
*M4/4	*
*met(c)	*
*k[f#]	*
*G:	*
!LO:TX:a:t=Schwäbiſch und Rheinländiſch.	!
{4g	Ʒu
=1	=1
4b	Stras-
4b	-burg
4b	auf
4b	der
=2	=2
2a	Schanʒ,
4r}	.
{4a	da
=3	=3
4cc	ging
4cc	mein
(8ccL	Trau-
8eeJ)	.
(8ddL	-ren
8ccJ)	.
=4	=4
2b	an;
8r}	.
{8b	das
8b	Alp-
8cc	-horn
=5	=5
8dd	hört'
8dd	ich
8cc	drüben
8b	.
4gg	wohl
4ee	an-
=6	=6
(4.ee	-ſtim-
8dd)	.
4dd}	-men,
{4b	in's
=7	=7
8.b/	Vaterland
16a	.
8a	.
8a	mußt'
8a	ich
8ee	hin-
8dd	-ü-
8cc	-ber
=8	=8
(4.cc	ſchwim-
8b)	-men,
4b}	.
{8gL	.
8bJ	das
=9	=9
2dd	ging
2cc	nicht
=10	=10
2b	an!
4r}	.
==	==
!!!AGN: Sagen - Lied, Romanze
!!!ONB: ESAC (Essen Associative Code) Database: ZUCCAL
!!!AMT: simple quadruple
!!!AIN: vox
!!!EED: Helmut Schaffrath
!!!EEV: 1.0
!!!GTL: I. Ernste Romanzen und Sagen.
!!!URL-scan: https://www.digitale-sammlungen.de/de/view/bsb11160571?page=21
!!!ENC: Anna Maria Matuszewska
!!!EEV: 2025/01/22
*-	*-
